resources/haticons/SVG/ballot.svg

<!-- Generated by IcoMoon.io -->
<svg version="1.1" xmlns="http://www.w3.org/2000/svg" width="24" height="24" viewBox="0 0 24 24">
<title>ballot</title>
<path d="M6.984 14.016h3v3h-3v-3zM6 18h5.016v-5.016h-5.016v5.016zM6.984 6.984h3v3h-3v-3zM6 11.016h5.016v-5.016h-5.016v5.016zM18.984 21h-13.969q-0.797 0-1.406-0.609t-0.609-1.406v-13.969q0-0.797 0.609-1.406t1.406-0.609h13.969q0.797 0 1.406 0.609t0.609 1.406v13.969q0 0.797-0.609 1.406t-1.406 0.609zM12.984 16.5h5.016v-2.016h-5.016v2.016zM12.984 9.516h5.016v-2.016h-5.016v2.016z"></path>
</svg>

<svg xmlns="http://www.w3.org/2000/svg" width="24" height="24"><path d="M6.984 14.016h3v3h-3v-3zM6 18h5.016v-5.016H6V18zm.984-11.016h3v3h-3v-3zM6 11.016h5.016V6H6v5.016zM18.984 21H5.015q-.797 0-1.406-.609T3 18.985V5.016q0-.797.609-1.406t1.406-.609h13.969q.797 0 1.406.609t.609 1.406v13.969q0 .797-.609 1.406T18.984 21zm-6-4.5H18v-2.016h-5.016V16.5zm0-6.984H18V7.5h-5.016v2.016z"/></svg>
